X:1
T:James Gibb editions
T:Ich will  den Herren loben, SWV 306 - Schütz
T:#
%%score 1 2
L:1/8
Q:1/4=120
M:4/4
K:F
V:1 treble nm="Soprano"
V:2 bass nm="Continuo"
V:1
"^Psalm 34:2-5, 7b""^Heinrich Schütz\n(1585-1672)""^Ich will den Herren loben, SWV 306" z4 c2 AB | %1
w: Ich will den|
 c2 d2 B2 A2 | G3 G G4 | z GAB c3 B |[M:4/4] AABc d3 c | B2 c2 _e2 d2 | c3 B BFGA | B3 A G4 | %8
w: Her- ren lo- ben|al- le- zeit,|sein Lob soll im- mer-|dar, sein Lob soll im- mer-|dar in mei- nem|Mun- de sein, sein Lob soll|im- mer- dar,|
 z GAB c3 B | Acde f3 e | d2 c2 B2 A2 | (G2 F4) E2 | F8 ||[M:3/2][Q:1/4=160] z4 A2 F2 E4 | %14
w: sein Lob soll im- mer-|dar, sein Lob soll im- mer-|dar in mei- nem|Mun\- * de|sein,|Al- le- lu-|
[M:3/2][Q:1/4=160][Q:1/4=160] D4 d2 B2 A4 | G4 G2 E2 D4 | C4 c2 A2 G4 ||[M:4/4] F8 | %18
w: ja, Al- le- lu-|ja, Al- le- lu-|ja, Al- le- lu-|ja-|
[Q:1/4=100] z2 G4 F2 | (G3 A/B/) G4 | z2 G4 A2 | B6 AA | A4 G4 | %23
w: Mei- ne|See * * le|soll sich|rüh- men des|Her- ren,|
[M:4/4][Q:1/4=100][Q:1/4=100] z2 GG G2 G2 | A2 E2 (^F3 G/A/) | ^F4 z2 G=F | %26
w: dass es die E-|len- den hö\- * *|ren und sich|
 (E/D/C/D/ E/F/G/A/ B)B z2 | z4 z2 BA | (G/F/_E/F/ G/A/B/c/ d/c/B/c/ d/e/f/g/ | AB/c/ B4 A2) | %30
w: freu\- * * * * * * * * en,|und sich|freu\- * * * * * * * * * * * * * * *||
 B8 ||[M:3/2][Q:1/4=160] z4 d2 B2 A4 | G4 G2 E2 D4 | C4 c2 A2 G4 | F4 f2 d2 c4 || %35
w: en.|Al- le- lu-|ja, Al- le- lu-|ja, Al- le- lu-|ja, Al- le- lu-|
[M:4/4][Q:1/4=160][Q:1/4=160] B8 |[Q:1/4=120] z2 c3 B A2 | c2 A3 B c2 | B2 A2 (A3 G) | %39
w: ja.|Prei- set mit|mir, prei- set mit|mir den Her\- *|
 A2 z A FGAB |[M:4/4][Q:1/4=120][Q:1/4=120] GABc A2 cc | d4 c4 | z4 z2 G2- | GF E2 G2 B2- | %44
w: ren, und lasst uns mit ein-|an- der sei- nen Na- men er-|hö- hen,|pre\-|* set mit mir, prei\-|
 Bc d2 c2 B2 | A4 G4 | z2 z B GABc | ABcd B2 dd | e4 d4 ||[M:3/2][Q:1/4=160] z4 d2 B2 A4 | %50
w: * set mit mir den|Her- ren,|und lasst uns mit ein-|an- der sei- nen Na- men er-|hö- hen.|Al- le- lu-|
 G4 G2 E2 D4 | C4 e2 c2 =B4 |[M:3/2][Q:1/4=160][Q:1/4=160] A4 A2 F2 E4 ||[M:4/4] D8 | %54
w: ja, Al- le- lu-|ja, Al- le- lu-|ja, Al- le- lu-|ja-|
[Q:1/4=100] z AAA A2 A2 | B4 B2 z d | G2 cB A4 | z4 z2 A2 | D2 GF E4 | %59
w: Da ich den Her- ren|such- te, ant-|wor- tet er mir,|ant-|wor- tet er mir,|
[M:4/4][Q:1/4=100][Q:1/4=100] z4 z2 GG | G2 ^F2 G2 A2 | %61
w: und er-|ret- tet mich aus|
 (B/!courtesy!=F/G/A/ B/c/B/c/ d/A/B/c/ d/e/d/e/ | f2) _e2 d3 c | c4 z4 || %64
w: al\- * * * * * * * * * * * * * * *|* ler mei- ner|Furcht.|
[M:3/2][Q:1/4=160] z4 c2 A2 G4 |[M:3/2][Q:1/4=160][Q:1/4=160] F4 A2 F2 E4 | D4 d2 B2 A4 | %67
w: Al- le- lu-|ja, Al- le- lu-|ja, Al- le- lu-|
 G4 G2 E2 D4 ||[M:4/4] C8 |[Q:1/4=100] z2 c4 A2- | A2 d2 z2 z B | _edcB A4 | %72
w: ja, Al- le- lu-|ja,|und half|* mir aus|al- len mei- nen Nö-|
[M:4/4][Q:1/4=100][Q:1/4=100] G4 z4 | z2 B4 G2- | G2 c2 z2 z A | dcBA G4 | F8 || %77
w: then,|und half|* mir aus|al- len mei- nen Nö-|then.|
[M:3/2][Q:1/4=160] z4 A2 F2 E4 |[M:3/2][Q:1/4=160][Q:1/4=160] D4 d2 B2 A4 | G4 G2 E2 D4 | %80
w: Al- le- lu-|ja, Al- le- lu-|ja, Al- le- lu-|
 C4 c2 A2 G4 ||[M:4/4] F4 z4 | %82
w: ja, Al- le- lu-|ja,|
[Q:1/4=90] (D/E/[Q:1/4=89]D/[Q:1/4=89]E/[Q:1/4=88] F/[Q:1/4=88]G/[Q:1/4=88]F/[Q:1/4=87]G/[Q:1/4=87] A/[Q:1/4=86]B/[Q:1/4=86]A/[Q:1/4=86]B/[Q:1/4=85] c2- | %83
w: Al\- * * * * * * * * * * * *|
[Q:1/4=83] c)[Q:1/4=83] (B/[Q:1/4=82]A/[Q:1/4=82] B/[Q:1/4=82]A/[Q:1/4=81]G/[Q:1/4=81]F/)[Q:1/4=79] G4 | %84
w: * le\- * * * * * lu-|
[Q:1/4=10] !fermata!F8 |] %85
w: ja.|
V:2
 F,2 D,E, F,2 G,2 | F,2 B,,2 _E,2 F,2 | C,3 C, C,G,,A,,=B,, | C,2 !courtesy!_B,,2 A,,2 G,,2 | %4
w: ||||
[M:4/4] F,,2 _E,2 D,B,,C,D, | _E,3 D, C,2 D,2 | _E,2 F,2 B,2 A,2 | G,2 F,2 E,2 D,2 | %8
w: ||||
 C,2 B,,2 A,,2 G,,2 | F,2 E,2 D,2 C,2 | B,,2 A,,2 G,,2 A,,2 | x2- x2 x2- x2 | F,,8 || %13
w: |||6 4||
[M:3/2] F,2 A,2 D,4 A,,4 |[M:3/2] B,,2 D,2 G,,4 D,4 | E,2 G,2 E,2 C,2 G,2 G,,2 | %16
w: |||
 A,,2 C,2 A,,2 F,,2 C,4 ||[M:4/4] F,,8 | C,6 D,2 | C,4 C,4 | C,6 A,,2 | G,,4 C,4 | D,4 G,,4 | %23
w: |||||||
[M:4/4] C,8 | ^C,4 D,4 | D,2 D,!courtesy!=C, =B,,4 | C,4 G,,2 G,F, | _E,F,G,A, B,4 | _E,4 B,,4 | %29
w: ||||||
 x2- x4 x2 | B,,8 ||[M:3/2] B,,2 D,2 G,,4 D,4 | E,2 G,2 C,4 G,4 | A,2 C2 A,2 F,2 C2 C,2 | %34
w: 3|||||
 D,2 F,2 D,2 B,,2 F,4 ||[M:4/4] B,,8 | F,8 | F,2 F,,4 F,,2 | G,,2 A,,2 x2- x2 | A,,4 D,2 B,,2 | %40
w: ||||* * 7||
[M:4/4] _E,2 C,2 F,2 =E,2 | G,4 C,D,E,F, | C,C,B,,A,, G,,F,, G,,2 | C,6 G,,2- | %44
w: ||||
 G,,A,, B,,2 A,,2 G,,2 | D,2 D,,2 G,,A,,B,,C, | D,D,C,B,, _E,2 C,2 | F,2 D,2 G,2 ^F,2 | A,4 D,4 || %49
w: |||||
[M:3/2] B,,2 D,2 G,,4 D,4 | E,2 G,2 C,4 G,,4 | C,2 E,2 A,,4 E,4 | %52
w: |||
[M:3/2] F,2 A,2 F,2 D,2 A,2 A,,2 ||[M:4/4] D,8 | D,8 | B,,6 B,,2 | _E,2 C,2 D,2 D,2 | %57
w: |||||
 G,,2 C,B,, A,,4 | G,,4 A,,2 A,2 |[M:4/4] D,2 G,F, E,4 | D,2 D,C, B,,2 A,,2 | G,,2 A,,2 B,,2 C,2 | %62
w: |||4 * * 6 *||
 D,2 _E,2 F,2 G,2 | C,8 ||[M:3/2] A,,2 C,2 F,,4 C,4 |[M:3/2] F,2 A,2 D,4 A,,4 | B,,2 D,2 G,,4 D,4 | %67
w: |||* 6 * *||
 E,2 G,2 E,2 C,2 G,2 G,,2 ||[M:4/4] C,8 | F,,4 F,4 | D,4 G,4 | C,4 D,4 |[M:4/4] G,2 _E,2 x2- x2 | %73
w: 6 * * * * *|||||* * 4|
 B,,4 _E,4 | C,4 F,4 | B,,4 C,4 | F,,8 ||[M:3/2] F,2 A,2 D,4 A,,4 |[M:3/2] B,,2 D,2 G,,4 D,4 | %79
w: ||||||
 E,2 G,2 E,2 C,2 G,2 G,,2 | A,,2 C,2 A,,2"^Kieme geistliche Konzerte. 2/1" F,,2 C,4 || %81
w: * * 6 * * *||
[M:4/4] F,,8 | B,,4 A,,4 | x4- x4 | !fermata!F,,8 |] %85
w: ||4||

